X: 15231
T: Girl I Left Behind Me, The
R: polka
M: 2/4
K: Gmajor
g/f/|ed c/B/A/G/|AG E>F|GG G/A/B/c/|d2 B(g/f/)|
ed c/B/A/G/|AG E>G|FA DE/F/|G2 G2||
GB de/f/|gd B>G|Bd ef|g2 f(g/f/)|
ed c/B/A/G/|AG E>G|FA DE/F/|G2 G2||

